src/icons/remove-email.svg

<?xml version="1.0" encoding="UTF-8"?>
<svg xmlns="http://www.w3.org/2000/svg" xmlns:xlink="http://www.w3.org/1999/xlink" width="32" height="32" viewBox="0 0 32 32" version="1.1">
<g id="surface1">
<path style=" stroke:none;fill-rule:nonzero;fill:rgb(0%,0%,0%);fill-opacity:1;" d="M 25.601562 0 C 23.957031 0 22.316406 0.621094 21.070312 1.867188 C 20.316406 2.621094 19.792969 3.523438 19.496094 4.480469 L 0 4.480469 L 0 6.261719 C 1.925781 7.9375 12.992188 17.570312 13.867188 18.332031 C 14.765625 19.117188 15.660156 19.199219 16 19.199219 C 16.339844 19.199219 17.234375 19.117188 18.132812 18.332031 C 18.558594 17.960938 21.609375 15.304688 24.589844 12.714844 C 25.230469 12.816406 25.878906 12.820312 26.523438 12.726562 C 24.953125 14.09375 23.707031 15.175781 22.328125 16.378906 L 32 23.992188 L 32 7.957031 C 31.949219 8.003906 31.804688 8.128906 31.75 8.175781 C 32.371094 6.007812 31.832031 3.570312 30.132812 1.867188 C 28.886719 0.621094 27.242188 0 25.601562 0 Z M 25.601562 1.28125 C 26.914062 1.28125 28.226562 1.777344 29.226562 2.773438 C 31.21875 4.769531 31.21875 8.03125 29.226562 10.023438 C 27.230469 12.015625 23.96875 12.015625 21.976562 10.023438 C 19.984375 8.03125 19.984375 4.769531 21.976562 2.773438 C 22.972656 1.777344 24.285156 1.28125 25.601562 1.28125 Z M 22.398438 5.761719 C 22.035156 5.761719 21.761719 6.035156 21.761719 6.398438 C 21.761719 6.765625 22.035156 7.039062 22.398438 7.039062 L 28.800781 7.039062 C 28.984375 7.039062 29.164062 6.949219 29.257812 6.859375 C 29.347656 6.765625 29.441406 6.582031 29.441406 6.398438 C 29.441406 6.035156 29.164062 5.761719 28.800781 5.761719 Z M 0 7.957031 L 0 24.015625 L 9.671875 16.378906 C 6.539062 13.648438 2.066406 9.757812 0 7.957031 Z M 10.65625 17.234375 L 0 25.648438 L 0 27.519531 L 32 27.519531 L 32 25.621094 L 21.34375 17.234375 C 20.105469 18.3125 19.203125 19.097656 18.976562 19.296875 C 17.75 20.363281 16.484375 20.480469 16 20.480469 C 15.515625 20.480469 14.25 20.363281 13.023438 19.296875 C 12.800781 19.097656 11.898438 18.3125 10.65625 17.234375 Z M 10.65625 17.234375 "/>
</g>
</svg>

<svg role="img" viewBox="0 0 32 32" xmlns="http://www.w3.org/2000/svg"><path d="M25.602 0a6.383 6.383 0 0 0-4.532 1.867 6.343 6.343 0 0 0-1.574 2.613H0v1.782l13.867 12.07c.899.785 1.793.867 2.133.867.34 0 1.234-.082 2.133-.867.426-.371 3.476-3.027 6.457-5.617.64.101 1.289.105 1.933.012-1.57 1.367-2.816 2.449-4.195 3.652L32 23.992V7.957c-.05.047-.195.172-.25.219a6.425 6.425 0 0 0-1.617-6.309A6.39 6.39 0 0 0 25.602 0m0 1.281a5.12 5.12 0 0 1 3.625 1.492c1.992 1.997 1.992 5.258 0 7.25-1.997 1.993-5.258 1.993-7.25 0-1.993-1.992-1.993-5.253 0-7.25a5.105 5.105 0 0 1 3.625-1.492m-3.204 4.48a.622.622 0 0 0-.636.637c0 .368.273.641.636.641h6.403a.71.71 0 0 0 .457-.18.721.721 0 0 0 .183-.46.626.626 0 0 0-.64-.637ZM0 7.958v16.059l9.672-7.637C6.539 13.649 2.066 9.758 0 7.957m10.656 9.277L0 25.648v1.872h32v-1.9l-10.656-8.387c-1.239 1.078-2.14 1.864-2.367 2.063C17.75 20.363 16.484 20.48 16 20.48s-1.75-.117-2.977-1.183c-.222-.2-1.125-.985-2.367-2.063m0 0" style="stroke:none;fill-rule:nonzero;fill:rgb(0%,0%,0%);fill-opacity:1"/></svg>
